svg/system/sleep_fill.svg

<?xml version="1.0" encoding="UTF-8"?>
<svg width="24px" height="24px" viewBox="0 0 24 24" version="1.1" xmlns="http://www.w3.org/2000/svg" xmlns:xlink="http://www.w3.org/1999/xlink">
    <title>sleep_fill</title>
    <g id="Icon" stroke="none" stroke-width="1" fill="none" fill-rule="evenodd">
        <g id="System" transform="translate(-864.000000, -432.000000)">
            <g id="sleep_fill" transform="translate(864.000000, 432.000000)">
                <path d="M24,0 L24,24 L0,24 L0,0 L24,0 Z M12.5935,23.2578 L12.5819,23.2595 L12.5109,23.295 L12.4919,23.2987 L12.4767,23.295 L12.4057,23.2595 C12.3958,23.2564 12.387,23.259 12.3821,23.2649 L12.378,23.2758 L12.3609,23.7031 L12.3659,23.7235 L12.3769,23.7357 L12.4805,23.8097 L12.4953,23.8136 L12.5071,23.8097 L12.6107,23.7357 L12.6233,23.7197 L12.6267,23.7031 L12.6096,23.2758 C12.6076,23.2657 12.601,23.2593 12.5935,23.2578 Z M12.8584,23.1453 L12.8445,23.1473 L12.6598,23.2397 L12.6499,23.2499 L12.6472,23.2611 L12.6651,23.6906 L12.6699,23.7034 L12.6784,23.7105 L12.8793,23.8032 C12.8914,23.8069 12.9022,23.803 12.9078,23.7952 L12.9118,23.7812 L12.8777,23.1665 C12.8753,23.1546 12.8674,23.147 12.8584,23.1453 Z M12.143,23.1473 C12.1332,23.1424 12.1222,23.1453 12.1156,23.1526 L12.1099,23.1665 L12.0758,23.7812 C12.0751,23.7927 12.0828,23.8019 12.0926,23.8046 L12.1083,23.8032 L12.3092,23.7105 L12.3186,23.7024 L12.3225,23.6906 L12.3404,23.2611 L12.3372,23.2485 L12.3278,23.2397 L12.143,23.1473 Z" id="MingCute" fill-rule="nonzero"></path>
                <path d="M11.5,4 C11.5,4.82843 12.1716,5.5 13,5.5 L16.3787,5.5 L11.9394,9.93934 C11.5104,10.3683 11.3821,11.0135 11.6142,11.574 C11.8464,12.1345 12.3934,12.5 13,12.5 L20,12.5 C20.8285,12.5 21.500083,11.8284 21.500083,11 C21.500083,10.1716 20.8285,9.5 20,9.5 L16.6214,9.5 L21.0607,5.06066 C21.4897,4.63166 21.618,3.98649 21.3859,3.42597 C21.1537,2.86546 20.6067,2.5 20,2.5 L13,2.5 C12.1716,2.5 11.5,3.17157 11.5,4 Z M4.00004,10.5 C3.17162,10.5 2.49999788,9.82843 2.49999788,9 C2.49999788,8.17157 3.17162,7.5 4.00004,7.5 L9.00004,7.5 C9.60674,7.5 10.1537,7.86546 10.3859,8.42597 C10.618,8.98649 10.4897,9.63166 10.0607,10.0607 L7.62136,12.5 L9.00004,12.5 C9.82847,12.5 10.4999979,13.1716 10.4999979,14 C10.4999979,14.8284 9.82847,15.5 9.00004,15.5 L4.00004,15.5 C3.39335,15.5 2.8464,15.1345 2.61422,14.574 C2.38205,14.0135 2.51039,13.3683 2.93938,12.9393 L5.37872,10.5 L4.00004,10.5 Z M12,17.5 C11.1716,17.5 10.5,16.8284 10.5,16 C10.5,15.1716 11.1716,14.5 12,14.5 L16,14.5 C16.6067,14.5 17.1537,14.8655 17.3859,15.426 C17.618,15.9865 17.4897,16.6317 17.0607,17.0607 L15.6214,18.5 L16,18.5 C16.8285,18.5 17.5,19.1716 17.5,20 C17.5,20.8284 16.8285,21.5 16,21.5 L12,21.5 C11.3934,21.5 10.8464,21.1345 10.6142,20.574 C10.3821,20.0135 10.5104,19.3683 10.9394,18.9393 L12.3787,17.5 L12,17.5 Z" id="形状" fill="#09244B"></path>
            </g>
        </g>
    </g>
</svg>

<svg xmlns="http://www.w3.org/2000/svg" width="24" height="24"><g fill="none" fill-rule="evenodd"><path d="M24 0v24H0V0h24ZM12.594 23.258l-.012.002-.071.035-.02.004-.014-.004-.071-.036c-.01-.003-.019 0-.024.006l-.004.01-.017.428.005.02.01.013.104.074.015.004.012-.004.104-.074.012-.016.004-.017-.017-.427c-.002-.01-.009-.017-.016-.018Zm.264-.113-.014.002-.184.093-.01.01-.003.011.018.43.005.012.008.008.201.092c.012.004.023 0 .029-.008l.004-.014-.034-.614c-.003-.012-.01-.02-.02-.022Zm-.715.002a.023.023 0 0 0-.027.006l-.006.014-.034.614c0 .012.007.02.017.024l.015-.002.201-.093.01-.008.003-.011.018-.43-.003-.012-.01-.01-.184-.092Z"/><path fill="#09244B" d="M11.5 4A1.5 1.5 0 0 0 13 5.5h3.379l-4.44 4.44A1.5 1.5 0 0 0 13 12.5h7a1.5 1.5 0 1 0 0-3h-3.379l4.44-4.44A1.5 1.5 0 0 0 20 2.5h-7A1.5 1.5 0 0 0 11.5 4ZM4 10.5a1.5 1.5 0 1 1 0-3h5a1.5 1.5 0 0 1 1.06 2.56L7.622 12.5H9a1.5 1.5 0 0 1 0 3H4a1.5 1.5 0 0 1-1.06-2.56l2.439-2.44H4Zm8 7a1.5 1.5 0 0 1 0-3h4a1.5 1.5 0 0 1 1.06 2.56l-1.439 1.44H16a1.5 1.5 0 1 1 0 3h-4a1.5 1.5 0 0 1-1.06-2.56l1.439-1.44H12Z"/></g></svg>
